flags/other/nato.svg

<svg width="512" height="512" viewBox="0 0 512 512" fill="none" xmlns="http://www.w3.org/2000/svg">
<rect width="512" height="512" fill="var(--flag-palette-blue, #0052b4)"/>
<path fill-rule="evenodd" clip-rule="evenodd" d="M244.87 33.3906H267.131V77.9126H244.87V33.3906ZM365.865 273.859L411.826 255.999L365.865 238.14L340.62 228.331L299.605 212.394L283.668 171.379C310.542 180.188 331.809 201.455 340.619 228.33L365.864 238.139C358.235 191.043 320.954 153.761 273.859 146.133L256 100.173L238.14 146.134C191.044 153.764 153.764 191.044 146.135 238.14L100.174 255.999L146.136 273.859C153.765 320.955 191.045 358.235 238.141 365.864L256 411.825L273.86 365.864C320.955 358.235 358.236 320.954 365.865 273.859ZM282.408 229.592L256 255.999V161.634L282.408 229.592ZM256 255.999V350.365L229.592 282.406L256 255.999ZM256 255.999H350.365L282.407 282.407L256 255.999ZM256 255.999L229.592 229.592L161.635 255.999H256ZM228.331 171.38L212.393 212.395L171.38 228.332C180.189 201.455 201.456 180.19 228.331 171.38ZM171.381 283.668L212.393 299.605L228.331 340.618C201.456 331.808 180.191 310.543 171.381 283.668ZM283.669 340.618L299.606 299.605L340.619 283.668C331.809 310.543 310.544 331.808 283.669 340.618ZM77.9131 244.87H33.3911V267.131H77.9131V244.87ZM244.87 434.087H267.131V478.609H244.87V434.087ZM478.609 244.87H434.087V267.131H478.609V244.87Z" fill="var(--flag-palette-white, #eeeeee)"/>
</svg>

<svg xmlns="http://www.w3.org/2000/svg" width="512" height="512" fill="none"><g clip-path="url(#a)"><path fill="var(--flag-palette-blue, #0052b4)" d="M0 0h512v512H0z"/><path fill="#EEE" fill-rule="evenodd" d="M244.9 33.4H267v44.5h-22zm121 240.5 46-17.9-46-17.9-25.3-9.8-41-16-16-41a89 89 0 0 1 57 57l25.3 9.8a112 112 0 0 0-92-92l-17.9-46-17.9 46a112 112 0 0 0-92 92l-46 17.9 46 17.9a112 112 0 0 0 92 92l17.9 46 17.9-46a112 112 0 0 0 92-92m-83.5-44.3L256 256v-94.4zM256 256v94.4l-26.4-68zm0 0h94.4l-68 26.4zm0 0-26.4-26.4-68 26.4zm-27.7-84.6-16 41-41 16a89 89 0 0 1 57-57m-57 112.3 41 16 16 41a89 89 0 0 1-57-57m112.4 57 16-41 41-16a89 89 0 0 1-57 57M77.9 244.8H33.4V267h44.5v-22ZM245 434h22v44.5h-22zm233.7-189.2h-44.5V267h44.5v-22Z" clip-rule="evenodd"/></g><defs><clipPath id="a"><path fill="#fff" d="M0 0h512v512H0z"/></clipPath></defs></svg>
